X: 21491
M: 2/4
L: 1/8
K: C
V: 1 name="4"
[|\
c2Gc | Bcdc | ec gc | ^fc ac |\
g2 ^f=f | ed cB | Ad BG | c3 z H|]
fe ce | g4 | ag fd | c3 "^D.C."z :|


